packages/components/src/telekom/icons/weather/cloudy/default.svg

<?xml version="1.0" encoding="UTF-8"?>
<svg width="24px" height="24px" viewBox="0 0 24 24" version="1.1" xmlns="http://www.w3.org/2000/svg" xmlns:xlink="http://www.w3.org/1999/xlink">
    <title>icon/weather/cloudy/default</title>
    <g id="icon/weather/cloudy/default" stroke="none" stroke-width="1" fill="none" fill-rule="evenodd">
        <path d="M10.4996,8.3812 C12.8528,8.3812 14.928,9.8328 15.742,12.02 C17.122,12.7508 18,14.1924 18,15.7636 C18,18.0288121 16.2130307,19.8844242 13.9750876,19.9948055 L13.764,20 L4.6728,20 C2.5372,20 0.8,18.2628 0.8,16.1272 C0.8,14.7356 1.5504,13.4584 2.742,12.772 C2.862,10.96 4.3744,9.5228 6.216,9.5228 C6.48,9.5228 6.744,9.5536 7.0036,9.6144 C7.9964,8.8168 9.2252,8.3812 10.4996,8.3812 Z M10.4992,9.5808 C9.49415385,9.5808 8.52455385,9.9264 7.74235703,10.559397 L7.5508,10.7236 L7.2888,10.9616 L6.954,10.8472 C6.7108,10.7644 6.4628,10.7224 6.2156,10.7224 C5.01001667,10.7224 4.01970694,11.6624771 3.93927416,12.8480279 L3.934,13.004 L3.958,13.5208 L3.5852,13.6872 C2.6224,14.1176 2,15.0752 2,16.1272 C2,17.5441231 3.10835799,18.7073479 4.50399693,18.7947307 L4.6728,18.8 L13.7636,18.8 C15.438,18.8 16.8,17.438 16.8,15.7636 C16.8,14.6400889 16.172763,13.6089864 15.1865158,13.0837529 L15.0088,12.9964 L14.766,12.8868 L14.6844,12.6328 C14.0988,10.8072 12.4168,9.5808 10.4992,9.5808 Z M19.7464,12.9464 C19.9547556,12.7384 20.277837,12.7152889 20.5116872,12.8770667 L20.5948,12.9464 L21.444,13.7948 C21.6784,14.0292 21.6784,14.4092 21.444,14.6436 C21.3268,14.7608 21.1732,14.8192 21.0196,14.8192 C20.89672,14.8192 20.77384,14.781568 20.6695968,14.7067136 L20.5952,14.6436 L19.7464,13.7952 C19.512,13.5608 19.512,13.1808 19.7464,12.9464 Z M16.6,6.8 C18.2544,6.8 19.6,8.1456 19.6,9.8 C19.6,10.932 18.9696,11.9184 18.042,12.4292 C17.668,11.9496 17.2196,11.5256 16.698,11.1904 C16.1328,9.9272 15.2076,8.8956 14.0704,8.194 C14.6032,7.3576 15.5368,6.8 16.6,6.8 Z M22.85,9.2 C23.1812,9.2 23.45,9.4684 23.45,9.8 C23.45,10.09844 23.232272,10.345688 22.9472816,10.3921532 L22.85,10.4 L21.65,10.4 C21.3188,10.4 21.05,10.1316 21.05,9.8 C21.05,9.50156 21.267728,9.254312 21.5527184,9.2078468 L21.65,9.2 L22.85,9.2 Z M20.5956,4.9564 C20.83,4.7224 21.2096,4.722 21.444,4.9564 C21.6523556,5.16475556 21.6755062,5.48815309 21.5134519,5.72207353 L21.444,5.8052 L20.5952,6.6536 C20.478,6.7708 20.3244,6.8292 20.1708,6.8292 C20.0172,6.8292 19.8636,6.7704 19.7468,6.6536 C19.5384444,6.44524444 19.5152938,6.12184691 19.6773481,5.88792647 L19.7468,5.8048 L20.5956,4.9564 Z M11.7568,4.9564 C11.9651556,4.7484 12.288237,4.72528889 12.5220872,4.88706667 L12.6052,4.9564 L13.454,5.8048 C13.6884,6.0392 13.6884,6.4192 13.454,6.6536 C13.3368,6.7708 13.1832,6.8292 13.0296,6.8292 C12.90672,6.8292 12.78384,6.791568 12.6795968,6.7167136 L12.6052,6.6536 L11.7568,5.8052 C11.5224,5.5708 11.5224,5.1904 11.7568,4.9564 Z M16.6,2.95 C16.89808,2.95 17.145616,3.167404 17.1921424,3.4526212 L17.2,3.55 L17.2,4.75 C17.2,5.0816 16.9312,5.35 16.6,5.35 C16.30192,5.35 16.054384,5.132596 16.0078576,4.8473788 L16,4.75 L16,3.55 C16,3.2184 16.2688,2.95 16.6,2.95 Z" id="Shape" fill="#262626" fill-rule="nonzero"></path>
    </g>
</svg>

<svg width="24" height="24" xmlns="http://www.w3.org/2000/svg"><path d="M10.5 8.381a5.577 5.577 0 015.242 3.639A4.246 4.246 0 0118 15.764a4.242 4.242 0 01-4.025 4.23l-.211.006H4.673A3.877 3.877 0 01.8 16.127c0-1.391.75-2.669 1.942-3.355a3.486 3.486 0 014.262-3.158A5.574 5.574 0 0110.5 8.381zm0 1.2a4.377 4.377 0 00-2.758.978l-.191.165-.262.238-.335-.115a2.286 2.286 0 00-.738-.125c-1.206 0-2.196.94-2.277 2.126l-.005.156.024.517-.373.166A2.677 2.677 0 002 16.127a2.676 2.676 0 002.504 2.668l.169.005h9.09a3.04 3.04 0 003.037-3.036 3.044 3.044 0 00-1.613-2.68l-.178-.088-.243-.11-.082-.253A4.381 4.381 0 0010.5 9.58zm9.246 3.365a.6.6 0 01.766-.069l.083.07.849.848a.6.6 0 01-.774.912l-.075-.063-.849-.849a.6.6 0 010-.849zM16.6 6.8c1.654 0 3 1.346 3 3 0 1.132-.63 2.118-1.558 2.63a5.44 5.44 0 00-1.344-1.24 6.765 6.765 0 00-2.628-2.996A2.998 2.998 0 0116.6 6.8zm6.25 2.4a.6.6 0 01.097 1.192l-.097.008h-1.2a.6.6 0 01-.097-1.192l.097-.008h1.2zm-2.254-4.244a.6.6 0 01.917.766l-.069.083-.849.849a.598.598 0 01-.848 0 .6.6 0 01-.07-.766l.07-.083.849-.849zm-8.84 0a.6.6 0 01.766-.069l.083.07.849.848a.6.6 0 01-.774.912l-.075-.063-.848-.849a.6.6 0 010-.849zM16.6 2.95a.6.6 0 01.592.503l.008.097v1.2a.6.6 0 01-1.192.097L16 4.75v-1.2a.6.6 0 01.6-.6z" fill="#000" fill-rule="evenodd"/></svg>
